<?xml version="1.0" encoding="UTF-8"?>
<map version="1.10" tiledversion="1.12.1" orientation="orthogonal" renderorder="right-down" width="30" height="20" tilewidth="16" tileheight="16" infinite="0" nextlayerid="5" nextobjectid="18">
 <tileset firstgid="1" source="../textures/mc.tsx"/>
 <tileset firstgid="625" source="../textures/avatar.tsx"/>
 <layer id="1" name="タイルレイヤー1" width="30" height="20">
  <data encoding="csv">
5,5,5,5,5,5,5,5,5,5,5,5,5,5,5,5,5,5,5,5,5,5,5,5,5,5,5,5,5,5,
5,8,8,8,8,8,8,8,8,8,8,8,8,8,8,8,8,8,8,8,8,8,8,8,8,8,8,8,8,5,
5,8,8,8,8,8,8,8,8,8,8,8,8,8,8,8,8,8,8,8,8,8,8,8,8,8,8,8,8,5,
5,8,8,8,8,8,8,8,8,8,8,8,8,8,8,8,8,8,8,8,8,8,8,8,8,8,8,8,8,5,
5,8,8,8,5,8,8,8,5,5,5,5,5,5,5,5,5,5,5,5,5,5,5,5,5,5,8,8,8,5,
5,8,8,8,5,8,8,8,5,8,8,8,8,8,8,8,8,8,8,8,8,8,8,8,8,8,8,8,8,5,
5,8,8,8,5,8,8,8,5,8,8,8,8,8,8,8,8,8,8,8,8,8,8,8,8,8,8,8,8,5,
5,8,8,8,5,8,8,8,5,8,8,8,8,8,8,8,8,8,8,8,8,8,8,8,8,8,8,8,8,5,
5,8,8,8,5,8,8,8,5,8,8,8,5,5,5,5,5,5,5,5,5,5,5,5,5,5,8,8,8,5,
5,8,8,8,5,8,8,8,5,8,8,8,5,8,8,8,8,8,8,8,8,8,8,8,8,5,8,8,8,5,
5,8,8,8,5,8,8,8,5,8,8,8,5,8,8,8,8,8,8,8,8,8,8,8,8,5,8,8,8,5,
5,8,8,8,5,8,8,8,5,8,8,8,5,8,8,5,8,8,8,8,8,8,8,8,8,5,8,8,8,5,
5,8,8,8,5,8,8,8,5,8,8,8,5,8,8,5,5,8,8,8,8,8,8,8,8,5,8,8,8,5,
5,8,8,8,5,8,8,8,5,8,8,8,5,8,8,5,5,5,8,8,8,8,8,8,8,5,8,8,8,5,
5,8,8,8,5,8,8,8,5,8,8,8,5,8,8,8,8,8,8,8,8,8,8,8,8,5,8,8,8,5,
5,5,5,5,5,8,8,8,5,8,8,8,5,5,5,5,5,5,5,5,5,5,8,8,8,5,8,8,8,5,
5,8,8,8,8,8,8,8,5,8,8,8,8,8,8,8,5,8,8,8,8,8,8,8,8,8,8,8,8,5,
5,8,8,8,8,8,8,8,5,8,8,8,8,8,8,8,5,8,8,8,8,8,8,8,8,8,8,8,8,5,
5,8,8,8,8,8,8,8,5,8,8,8,8,8,8,8,5,8,8,8,8,8,8,8,8,8,8,8,8,5,
5,5,5,5,5,5,5,5,5,5,5,5,5,5,5,5,5,5,5,5,5,5,5,5,5,5,5,5,5,5
</data>
 </layer>
 <objectgroup id="4" name="ojt2">
  <object id="3" name="goal2" x="215.16" y="150.37" width="83.6464" height="80.7454"/>
  <object id="15" name="Player" gid="625" x="40.6667" y="293.333" width="32" height="32"/>
 </objectgroup>
</map>
