<?xml version="1.0" encoding="UTF-8"?>
<map version="1.10" tiledversion="1.12.1" orientation="orthogonal" renderorder="right-down" width="30" height="20" tilewidth="16" tileheight="16" infinite="0" nextlayerid="3" nextobjectid="8">
 <tileset firstgid="1" source="../textures/mc.tsx"/>
 <tileset firstgid="625" source="../textures/avatar.tsx"/>
 <layer id="1" name="タイルレイヤー1" width="30" height="20">
  <data encoding="csv">
5,5,5,5,5,5,5,5,5,5,5,5,5,5,5,5,5,5,5,5,5,5,5,5,5,5,5,5,5,5,
5,8,8,8,8,8,8,8,8,8,8,8,346,388,388,388,388,346,8,8,8,8,8,8,8,8,8,8,8,5,
5,8,8,8,8,8,8,8,8,8,8,8,346,388,388,388,388,346,8,8,8,8,8,8,8,8,8,8,8,5,
5,8,8,8,8,8,8,8,8,8,8,8,346,388,388,388,388,346,8,8,8,8,8,8,8,8,8,8,8,5,
5,8,8,8,8,8,8,8,8,8,8,8,346,346,346,346,346,346,8,8,8,8,8,8,8,8,8,8,8,5,
5,8,8,8,8,8,8,8,8,8,8,8,8,382,382,382,382,8,8,8,8,8,8,8,8,8,8,8,8,5,
5,8,8,8,8,8,8,8,8,8,8,8,8,382,382,382,382,8,8,8,8,8,8,8,8,8,8,8,8,5,
5,8,8,8,8,8,8,8,8,8,8,8,8,382,382,382,382,8,8,8,8,8,8,8,8,8,8,8,8,5,
5,8,8,8,8,8,8,8,8,8,8,8,8,382,382,382,382,8,8,8,8,8,8,8,8,8,8,8,8,5,
5,8,8,8,8,8,8,8,8,8,8,8,8,382,382,382,382,8,8,8,8,8,8,8,8,8,8,8,8,5,
5,8,8,8,8,8,8,8,8,8,8,8,8,382,382,382,382,8,8,8,8,8,8,8,8,8,8,8,8,5,
5,8,8,8,8,8,8,8,8,8,8,8,8,382,382,382,382,8,8,8,8,8,8,8,8,8,8,8,8,5,
5,8,8,8,8,8,8,8,8,8,8,8,8,382,382,382,382,8,8,8,8,8,8,8,8,8,8,8,8,5,
5,8,8,8,8,8,8,8,8,8,8,8,8,382,382,382,382,8,8,8,8,8,8,8,8,8,8,8,8,5,
5,8,8,8,8,8,8,8,8,8,8,8,8,382,382,382,382,8,8,8,8,8,8,8,8,8,8,8,8,5,
5,5,5,5,5,5,5,5,5,5,5,5,49,382,382,382,382,49,5,5,5,5,5,5,5,5,5,5,5,5,
5,382,382,382,382,382,382,382,382,382,382,382,382,382,382,382,382,382,382,382,382,382,382,382,382,382,382,382,382,5,
5,382,382,382,382,382,382,382,382,382,382,382,382,382,382,382,382,382,382,382,382,382,382,382,382,382,382,382,382,5,
5,382,382,382,382,382,382,382,382,382,382,382,382,382,382,382,382,382,382,382,382,382,382,382,382,382,382,382,382,5,
5,5,5,5,5,5,5,5,5,5,5,5,5,5,5,5,5,5,5,5,5,5,5,5,5,5,5,5,5,5
</data>
 </layer>
 <objectgroup id="2" name="ojt3">
  <object id="5" name="Player" gid="625" x="24.6145" y="293.532" width="32" height="32"/>
 </objectgroup>
</map>
